**kern	**kern	**dynam
*part1	*part1	*part1
*staff2	*staff1	*
*I"Piano	*	*
*clefF4	*clefG2	*
*k[b-e-a-]	*k[b-e-a-]	*
=1	=1	=1
!	!LO:TX:b:i:t=cresc.	!
4BB- 4D-X 4En 4G	4B- 4d-X 4en 4g	.
8BB-L 8D- 8E 8G	8B-L 8d- 8e 8g	.
8BB-J 8D- 8E 8G	8B-J 8d- 8e 8g	.
=	=	=
4AA- 4C 4G	4A- 4c 4g	<
8AAnL 8C 8E-X 8F	8AnL 8c 8e- 8f	.
8AAJ 8C 8E- 8F	8AJ 8c 8e- 8f	.
=	=	=
4BB- 4E- 4G	4B- 4e- 4g	[ f >
8BB-L 8D 8F	8B-L 8d 8f	.
8BB-J 8D 8F	8B-J 8d 8f	.
=	=	=
4EE- 4BB- 4E-	4G 4B- 4e-	]
8E-L 8B-	8e-L 8g	p
8E-J 8B-	8e-J 8g	.
=	=	=
4E- 4B-	4e- 4g	.
8E-L 8B-	8e-L 8g	.
8E-J 8B-	8e-J 8g	.
=	=	=
4E- 4B-	4e- 4g	.
8E-L 8A-	8e-L 8a-	.
8E-J 8G	8e-J 8b-	.
=	=	=
4E- 4A- 4B-	4f 4b-	<
8E-L 8A- 8B-	8fL 8cc	.
8E-J 8A- 8B-	8fJ 8dd	.
=	=	=
4E- 4G 4B-	4e- 4ee-	[ >
8E-L 8B-	8gL 8ee-	.
8E-J 8B-	8gJ 8ee-	.
=	=	=
4E- 4B-	4g 4ee-	]
8E-L 8B-	8gL 8ee-	.
8E-J 8B-	8gJ 8ee-	.
=	=	=
2E-; 2B-	2g; 2ee-	pp
==	==	==
*-	*-	*-
!!!system-decoration: {(s1,s2)}
